X:1
T: Memory Of Trees- Enya
Z:Giddily
M: 6/4
L: 1/8
Q:1/4=96
K:Eb
E,B,E B,EB, A,EA EAE|
E,B,E B,EB, A,EA EAE|E,B,E B,EB, A,EA EAE|E,B,E B,EB, A,EA EAE|E,B,G B,BB, cEA EeE/2z/2|
zB,G B,BB, cEz EBE/2z/2|zB,G B,BB, cEA EeE/2z/2|zB,G B,BB, cEz EBE|CGe GdG BDG DBD|
cEA EAE A,Ez2dF|Cze GdG BDG DBD|dFB FBF B,Fz FeF|E,zG B,BB, cEA EeE/2z/2|
zB,G B,BB, cEz EBE/2z/2|zB,G B,BB, cEA EeE/2z/2|zB,G B,BB, cEz EBE|CGe GdG BDG DBD|
cEA EAE A,Ez2dF|Cze GdG BDG DBD|dFB FBF B,Fz FeF|E,zG B,BB, cEA EeE/2z/2|
zB,G B,BB, cEz EBE/2z/2|zB,G B,BB, cEA EeE/2z/2|zB,G B,BB, cEz EBE|BDG DBD cEA EAE|
GB,E B,GB, FF,D F,FF,|BDG DBD EG,C G,EG,|ACF CFC DF,z F,DF,|BDG DBD cEA EAE|
GB,E B,GB, FF,D F,FF,|BDG DBD cEA EcE|eFd FBF dFe FfF|eB,G B,BB, cEA EeE/2z/2|
zB,G B,BB, cEz EBE/2z/2|zB,G B,BB, A,EA EeE/2z/2|zB,G B,BB, cEz EBE|CGe GdG BDG DBD|
cEA EAE A,Ez EdF|Cze GdG BDG DBD|dFB FBF B,Fz FBF|EB,E B,EB, cEA EeE/2z/2|
zB,G B,BB, cEz EBE/2z/2|zB,G B,BB, cEA EeE/2z/2|zB,G B,BB, cEz EBE|BDG DBD cEA EAE|
GB,E B,GB, FF,D F,FF,|BDG DBD cEA EcE|eFd FBF dFe FfF|eB,G B,BB, cEA EeE/2z/2|
zB,G B,BB, cEz EBE/2z/2|zB,G B,BB, cEA EeE|E,B,G B,BB, cEz EBE|E,B,G B,BB, cEA EeE/2z/2|
zB,G B,BB, cEz EBE/2z/2|zB,G B,BB, cEA EeE/2z/2|zB,G B,BB, cEz EBE|BB,E B,gB, gB,E B,zB,|
bB,E B,gB, gB,z B,EB,|gB,E B,EB, E,2B,2Ez|B,12|
Someone wanted Enya it plays nice and mellow and it is fitting to the game.A superb tune gratz goes to Giddily.
-----------------------------------------------------------------------------
athianfantax31-07-2007, 06:22 AMI can play a musical instrument,what do I do with the code?
-----------------------------------------------------------------------------
athianfantax01-08-2007, 07:22 AMNobody knows?
-----------------------------------------------------------------------------
Mindulas03-08-2007, 05:07 PMI can play a musical instrument,what do I do with the code?
K 4 easy steps
1.Create a folder called music in the The Lord of the Rings folder found in Documents.
2.Open up notepad and copy and paste the above song.
3.Name the file something like enya.abc not .txt!
4.Save it and put it within the music folder within The Lord of the Rings folder.
Play game go into music mode then type /play enya
Should play abc song!
-----------------------------------------------------------------------------
athianfantax04-08-2007, 06:58 PMthanks a lot
-----------------------------------------------------------------------------
Celith05-08-2007, 03:06 PMDoesn't work for me.. I've been doing exactly as it says, it becomes an .abc file.. Still it just says 'Couldn't open file
C:\Documents and Settings\Stina\Mina dokument\The Lord of the Rings Online\Music\enya.abc.' when i'm trying to play..
-----------------------------------------------------------------------------
Hejjin05-08-2007, 04:20 PMDoesn't work for me.. I've been doing exactly as it says, it becomes an .abc file.. Still it just says 'Couldn't open file
C:\Documents and Settings\Stina\Mina dokument\The Lord of the Rings Online\Music\enya.abc.' when i'm trying to play..
Windows by default hides the extensions of know file types, so when you are saving it, it may well append .txt to the end of your filename. Try changing your folder view options (under xp this would be : Explorer -> Tools -> Folder Options -> View -> Hide Extensions for known files (uncheck it)
-----------------------------------------------------------------------------
Atyra07-08-2007, 10:17 PMDoesn't work for me.. I've been doing exactly as it says, it becomes an .abc file.. Still it just says 'Couldn't open file
C:\Documents and Settings\Stina\Mina dokument\The Lord of the Rings Online\Music\enya.abc.' when i'm trying to play..
You can find quite detailed guides here, if you still have problems:
http://community.codemasters.com/forum/showthread.php?t=195885
http://community.codemasters.com/forum/showthread.php?t=207071
-----------------------------------------------------------------------------
Rodurn08-08-2007, 12:42 AMVery nice song thanks mate. :) Seems to work best on the lute from what i can tell.
-----------------------------------------------------------------------------
vBulletin® v3.8.4, Copyright ©2000-2009, Jelsoft Enterprises Ltd.
